icons/face-neutral.svg

<svg width="24" height="24" viewBox="0 0 24 24" fill="none" xmlns="http://www.w3.org/2000/svg">
<path fill-rule="evenodd" clip-rule="evenodd" d="M12 4C7.58172 4 4 7.58172 4 12C4 16.4183 7.58172 20 12 20C16.4183 20 20 16.4183 20 12C20 7.58172 16.4183 4 12 4ZM2 12C2 6.47715 6.47715 2 12 2C17.5228 2 22 6.47715 22 12C22 17.5228 17.5228 22 12 22C6.47715 22 2 17.5228 2 12ZM8 10C8 9.44772 8.44772 9 9 9H9.01C9.56228 9 10.01 9.44772 10.01 10C10.01 10.5523 9.56228 11 9.01 11H9C8.44772 11 8 10.5523 8 10ZM14 10C14 9.44772 14.4477 9 15 9H15.01C15.5623 9 16.01 9.44772 16.01 10C16.01 10.5523 15.5623 11 15.01 11H15C14.4477 11 14 10.5523 14 10ZM8 15C8 14.4477 8.44772 14 9 14H15C15.5523 14 16 14.4477 16 15C16 15.5523 15.5523 16 15 16H9C8.44772 16 8 15.5523 8 15Z" fill="black"/>
</svg>

<svg
  width="24"
  height="24"
  viewBox="0 0 24 24"
  xmlns="http://www.w3.org/2000/svg"
>
  <path
    fill-rule="evenodd"
    clip-rule="evenodd"
    d="M12 4a8 8 0 1 0 0 16 8 8 0 0 0 0-16zM2 12C2 6.477 6.477 2 12 2s10 4.477 10 10-4.477 10-10 10S2 17.523 2 12zm6-2a1 1 0 0 1 1-1h.01a1 1 0 0 1 0 2H9a1 1 0 0 1-1-1zm6 0a1 1 0 0 1 1-1h.01a1 1 0 1 1 0 2H15a1 1 0 0 1-1-1zm-6 5a1 1 0 0 1 1-1h6a1 1 0 1 1 0 2H9a1 1 0 0 1-1-1z"
  />
</svg>
